images/notfound.svg

<svg width="83" height="83" viewBox="0 0 83 83" fill="none" xmlns="http://www.w3.org/2000/svg">
<path fill-rule="evenodd" clip-rule="evenodd" d="M37 73C56.8823 73 73 56.8823 73 37C73 17.1177 56.8823 1 37 1C17.1177 1 1 17.1177 1 37C1 56.8823 17.1177 73 37 73ZM37 74C57.4345 74 74 57.4345 74 37C74 16.5655 57.4345 0 37 0C16.5655 0 0 16.5655 0 37C0 57.4345 16.5655 74 37 74Z" fill="#D1D2D6"/>
<path fill-rule="evenodd" clip-rule="evenodd" d="M82.1465 82.8536L62.6465 63.3536L63.3536 62.6465L82.8536 82.1465L82.1465 82.8536Z" fill="#D1D2D6"/>
<path fill-rule="evenodd" clip-rule="evenodd" d="M37.1642 43.5C43.0758 43.5 48.3726 46.1299 51.9494 50.2854L52.7073 49.633C48.9486 45.2663 43.3792 42.5 37.1642 42.5C30.9492 42.5 25.3798 45.2663 21.6211 49.633L22.379 50.2854C25.9558 46.1299 31.2526 43.5 37.1642 43.5Z" fill="#D1D2D6"/>
<path d="M51 27.5C51 28.3284 50.3284 29 49.5 29C48.6716 29 48 28.3284 48 27.5C48 26.6716 48.6716 26 49.5 26C50.3284 26 51 26.6716 51 27.5Z" fill="#D1D2D6"/>
<path d="M26 27.5C26 28.3284 25.3284 29 24.5 29C23.6716 29 23 28.3284 23 27.5C23 26.6716 23.6716 26 24.5 26C25.3284 26 26 26.6716 26 27.5Z" fill="#D1D2D6"/>
</svg>

<svg width="83" height="83" fill="none" xmlns="http://www.w3.org/2000/svg"><path fill-rule="evenodd" clip-rule="evenodd" d="M37 73c19.882 0 36-16.118 36-36S56.882 1 37 1 1 17.118 1 37s16.118 36 36 36zm0 1c20.434 0 37-16.566 37-37S57.434 0 37 0 0 16.566 0 37s16.566 37 37 37z" fill="#D1D2D6"/><path fill-rule="evenodd" clip-rule="evenodd" d="M82.147 82.854l-19.5-19.5.707-.707 19.5 19.5-.707.707zM37.164 43.5c5.912 0 11.209 2.63 14.785 6.785l.758-.652C48.95 45.266 43.38 42.5 37.164 42.5s-11.784 2.766-15.543 7.133l.758.652c3.577-4.155 8.874-6.785 14.785-6.785z" fill="#D1D2D6"/><path d="M51 27.5a1.5 1.5 0 11-3 0 1.5 1.5 0 013 0zm-25 0a1.5 1.5 0 11-3 0 1.5 1.5 0 013 0z" fill="#D1D2D6"/></svg>
